X:1
T:My Heart’s Dear Home
T:William James Kirkpatrick
T:My Heart’s Dear Home
T:Public Domain
T:Public Domain
C:William James Kirkpatrick
Z:Public Domain
%%score ( 1 2 ) ( 3 4 )
L:1/8
M:4/4
K:Bb
V:1 treble 
V:2 treble 
V:3 bass 
V:4 bass 
V:1
 [DF]4 [B,D]>[DF] [DB]>[Ec] | [Fd]2 [Fc]2 [FB]2 [EG]2 | [DF]4 [DB]2 [Fd]2 | [Fc]6 z2 | %4
w: 1.~When lost a- mong the|wild, dark mount- ains,|Far, far from|Thee,|
w: 2.~When lost a- mong the|wild, dark mount- ains,|Sad was my|cry,|
w: 3.~O teach me to a-|dore and praise Thee,|Sav- ior di-|vine;|
w: 4.~Wher- ev- er Thou wilt|lead, I’ll fol- low|Close, close to|Thee;|
 [DF]4 [B,D]>[DF] [DB]>[Ec] | [Fd]2 [Fc]2 [FB]2 [EG]2 | [DF]2 [DB]>[DB] [CA]2 [Ec]2 | [DB]6 z2 || %8
w: I heard Thy gen- tle|voice, my Sav- ior,|Call- ing in love to|me.|
w: Till soft- ly came the|words so ten- der,|“Fear not, for here am|I.”|
w: Now I have made a|full sur- ren- der,|All that I am is|Thine.|
w: One prayer a- lone my|soul is breath- ing:|Sav- ior, a- bide with|me.|
"^Refrain" [Fc]3 [Fd] [Fe]2 [FA]2 | [FB]3 [Fc] [Fd]2 [DF]2 | [EG]2 [EB]2 [=EB]2 (AB) | [Fc]6 z2 | %12
w: ||||
w: Safe, with- in Thy|arms of mer- cy,|Ne- ver more to *|O,|
w: ||||
w: ||||
 [Fd]4 [Fd]>[Ec] [DB]>[Ec] | [Fd]2 [Fc]2 [FB]2 [EG]2 | [DF]2 [DB]>[DB] [CA]2 [Ec]2 | [DB]6 z2 |] %16
w: ||||
w: let me rest in peace|for- ev- er, Safe|in my heart’s dear home.||
w: ||||
w: ||||
V:2
 x8 | x8 | x8 | x8 | x8 | x8 | x8 | x8 || x8 | x8 | x6 =E2 | x8 | x8 | x8 | x8 | x8 |] %16
w: ||||||||||||||||
w: ||||||||||roam;||||||
V:3
 [B,,B,]4 [B,,F,]>[B,,F,] [B,,F,]>[B,,F,] | [B,,B,]2 [C,A,]2 [D,B,]2 [E,B,]2 | %2
w: ~ ~ ~ ~ ~|~ ~ ~ ~|
 [B,,B,]4 [B,,F,]2 [B,,B,]2 | [F,A,]6 z2 | B,4 [B,,F,]>[B,,F,] [B,,F,]>[B,,F,] | %5
w: ~ ~ ~|~|~ ~ ~ ~ ~|
 [B,,B,]2 [C,A,]2 [D,B,]2 [E,B,]2 | [F,B,]2 [F,B,]>[F,B,] F,2 F,2 | [B,,F,]6 z2 || %8
w: ~ ~ ~ ~|~ ~ ~ ~ ~|~|
 [F,A,]3 [F,B,] [F,C]2 (F,E,) | [D,B,]3 [C,A,] [B,,B,]2 [B,,B,]2 | [E,B,]2 [E,G,]2 [C,G,]2 (CB,) | %11
w: ~ ~ ~ ~ *|~ ~ ~ ~|~ Nev- er more *|
 F,2 F,G, F,E,(D,C,) | [B,,B,]4 [B,,B,]>[B,,B,] [B,,B,]>[B,,B,] | %13
w: roam; * * * * * *||
 [B,,B,]2 [C,A,]2 [D,B,]2 [E,B,]2 | [F,B,]2 [F,B,]>[F,B,] F,2 F,2 | [B,,F,]6 z2 |] %16
w: |||
V:4
 x8 | x8 | x8 | x8 | B,4 x4 | x8 | x4 F,2 F,2 | x8 || x6 C2 | x8 | x6 C,2 | [F,A,]6 x2 | x8 | x8 | %14
w: ||||~||~ ~||~||to||||
 x4 F,2 F,2 | x8 |] %16
w: ||

